assets/icons/showers-night.svg

<?xml version="1.0" encoding="UTF-8" standalone="no"?>
<svg
   viewBox="0 0 24 24"
   height="24"
   id="svg7384"
   version="1.1"
   width="24"
   sodipodi:docname="showers-night.svg"
   inkscape:version="1.2.2 (1:1.2.2+202305151915+b0a8486541)"
   xmlns:inkscape="http://www.inkscape.org/namespaces/inkscape"
   xmlns:sodipodi="http://sodipodi.sourceforge.net/DTD/sodipodi-0.dtd"
   xmlns="http://www.w3.org/2000/svg"
   xmlns:svg="http://www.w3.org/2000/svg"
   xmlns:rdf="http://www.w3.org/1999/02/22-rdf-syntax-ns#"
   xmlns:cc="http://creativecommons.org/ns#"
   xmlns:dc="http://purl.org/dc/elements/1.1/">
  <sodipodi:namedview
     id="namedview21"
     pagecolor="#ffffff"
     bordercolor="#666666"
     borderopacity="1.0"
     inkscape:pageshadow="2"
     inkscape:pageopacity="0.0"
     inkscape:pagecheckerboard="0"
     showgrid="true"
     width="24px"
     inkscape:zoom="30.6633"
     inkscape:cx="13.860217"
     inkscape:cy="12.637257"
     inkscape:window-width="1850"
     inkscape:window-height="1016"
     inkscape:window-x="0"
     inkscape:window-y="0"
     inkscape:window-maximized="1"
     inkscape:current-layer="svg7384"
     inkscape:showpageshadow="2"
     inkscape:deskcolor="#d1d1d1">
    <inkscape:grid
       type="xygrid"
       id="grid118" />
    <inkscape:grid
       type="xygrid"
       id="grid526"
       dotted="true"
       spacingx="0.5"
       spacingy="0.5"
       empspacing="10" />
  </sodipodi:namedview>
  <metadata
     id="metadata20854">
    <rdf:RDF>
      <cc:Work
         rdf:about="">
        <dc:format>image/svg+xml</dc:format>
        <dc:type
           rdf:resource="http://purl.org/dc/dcmitype/StillImage" />
      </cc:Work>
    </rdf:RDF>
  </metadata>
  <defs
     id="defs7386">
    <linearGradient
       id="linearGradient5606"
       inkscape:swatch="solid">
      <stop
         id="stop5608"
         offset="0"
         style="stop-color:#000000;stop-opacity:1;" />
    </linearGradient>
    <linearGradient
       id="linearGradient4526"
       inkscape:swatch="solid">
      <stop
         id="stop4528"
         offset="0"
         style="stop-color:#ffffff;stop-opacity:1;" />
    </linearGradient>
    <linearGradient
       id="linearGradient3600-4"
       inkscape:swatch="gradient">
      <stop
         id="stop3602-7"
         offset="0"
         style="stop-color:#f4f4f4;stop-opacity:1" />
      <stop
         id="stop3604-6"
         offset="1"
         style="stop-color:#dbdbdb;stop-opacity:1" />
    </linearGradient>
  </defs>
  <path
     id="rect1606"
     style="fill:#808080;fill-opacity:1;fill-rule:evenodd;stroke-width:0.5;stroke-linecap:square;stroke-linejoin:round"
     d="M 16 9 C 14.177768 9.004 12.588541 10.239074 12.134766 12.003906 C 12.089876 12.001606 12.044946 12.0003 12 12 C 10.343148 12 9 13.343148 9 15 C 9 16.656852 10.343148 18 12 18 L 12.896484 18 C 13.018065 17.732596 13.105469 17.552734 13.105469 17.552734 L 13.382812 17 L 12 17 C 10.895432 17 10 16.104568 10 15 C 10 13.895432 10.895432 13 12 13 C 12.359587 13.000217 12.712465 13.09738 13.021484 13.28125 C 13.009914 13.18789 13.00274 13.094035 13 13 C 13.0028 12.734421 13.04093 12.470393 13.113281 12.214844 C 13.466919 10.910706 14.648771 10.003926 16 10 C 17.656852 10 19 11.343148 19 13 C 18.9989 13.01954 18.997594 13.039084 18.996094 13.058594 C 18.986694 13.456127 18.898434 13.847835 18.736328 14.210938 C 18.967381 14.073455 19.231139 14.000601 19.5 14 C 19.61978 14.000079 19.73912 14.014499 19.855469 14.042969 C 20.527187 14.20682 20.999889 14.808587 21 15.5 C 21 16.328426 20.328426 17 19.5 17 L 17.617188 17 L 17.894531 17.552734 C 17.894531 17.552734 17.983742 17.732843 18.105469 18 L 19.5 18 C 20.880711 18 22 16.880711 22 15.5 C 21.999494 14.310924 21.161524 13.286739 19.996094 13.050781 C 19.997494 13.033861 19.9988 13.01693 20 13 C 20 10.790863 18.209137 9 16 9 z M 14.617188 17 L 14.894531 17.552734 C 14.894531 17.552734 14.983742 17.732843 15.105469 18 L 15.896484 18 C 16.018065 17.732596 16.105469 17.552734 16.105469 17.552734 L 16.382812 17 L 14.617188 17 z " />
  <path
     id="path822"
     style="fill:#808080;fill-opacity:1;fill-rule:evenodd;stroke:none"
     d="M 14 18 C 14 18 13 20.000001 13 21 C 13 21.552284 13.447716 22 14 22 C 14.552284 22 15 21.552284 15 21 C 14.999747 20.98371 14.999143 20.967432 14.998047 20.951172 C 14.967157 19.936483 14 18 14 18 z M 17 18 C 17 18 16 20.000001 16 21 C 16 21.552284 16.447716 22 17 22 C 17.552284 22 18 21.552284 18 21 C 17.999747 20.98371 17.999143 20.967432 17.998047 20.951172 C 17.967157 19.936483 17 18 17 18 z " />
  <path
     id="circle507"
     style="color:#000000;fill:#808080;stroke-linecap:square;stroke-linejoin:round;-inkscape-stroke:none"
     d="M 11.085938 2.1699219 C 11.308993 2.5438904 11.493492 2.9434123 11.638672 3.3613281 C 11.871372 4.031182 12 4.7498641 12 5.5 C 12 9.0957588 9.0957588 12 5.5 12 C 4.7498641 12 4.031182 11.871372 3.3613281 11.638672 C 2.9434123 11.493492 2.5438904 11.308993 2.1699219 11.085938 C 2.2691268 11.545032 2.4086616 11.988325 2.5878906 12.412109 C 3.6026927 14.811601 5.8326776 16.577063 8.5019531 16.933594 C 8.3146448 16.597476 8.1758867 16.231258 8.0917969 15.845703 C 6.3175522 15.454938 4.8165191 14.3431 3.9140625 12.830078 C 4.4255525 12.940605 4.9558757 13 5.5 13 C 9.6361969 13 13 9.6361969 13 5.5 C 13 4.9558757 12.9406 4.4255525 12.830078 3.9140625 C 14.319039 4.802168 15.417126 6.2704521 15.824219 8.0078125 C 15.882279 8.0055932 15.9395 8.0001286 15.998047 8 L 16 8 C 16.295269 8 16.583453 8.0278109 16.863281 8.078125 C 16.385178 5.5983332 14.683191 3.5483847 12.412109 2.5878906 C 11.988325 2.4086616 11.545032 2.2691268 11.085938 2.1699219 z " />
</svg>

<svg height="24" width="24" xmlns="http://www.w3.org/2000/svg"><path style="fill:gray;fill-opacity:1;stroke-width:.5;stroke-linecap:square;stroke-linejoin:round" d="M16 9a4 4 0 0 0-3.865 3.004A3 3 0 1 0 12 18h.896c.122-.267.21-.447.21-.447l.277-.553H12a2 2 0 1 1 1.021-3.719A2.996 2.996 0 0 1 13 13c.003-.266.04-.53.113-.785A3 3 0 0 1 16 10a3 3 0 0 1 3 3l-.004.059a3 3 0 0 1-.26 1.152 1.5 1.5 0 0 1 1.12-.168A1.5 1.5 0 0 1 19.5 17h-1.883l.278.553s.089.18.21.447H19.5a2.5 2.5 0 0 0 .496-4.95A4.32 4.32 0 0 0 20 13a4 4 0 0 0-4-4zm-1.383 8 .278.553s.089.18.21.447h.791c.122-.267.21-.447.21-.447l.277-.553h-1.766z"/><path style="fill:gray;fill-opacity:1;stroke:none" d="M14 18s-1 2-1 3a1 1 0 1 0 1.998-.049C14.968 19.936 14 18 14 18zm3 0s-1 2-1 3a1 1 0 1 0 1.998-.049C17.968 19.936 17 18 17 18z"/><path style="color:#000;fill:gray;stroke-linecap:square;stroke-linejoin:round;-inkscape-stroke:none" d="M11.086 2.17A6.502 6.502 0 0 1 12 5.5C12 9.096 9.096 12 5.5 12a6.502 6.502 0 0 1-3.33-.914c.1.459.239.902.418 1.326a7.522 7.522 0 0 0 5.914 4.522 3.973 3.973 0 0 1-.41-1.088 6.497 6.497 0 0 1-4.178-3.016A7.5 7.5 0 0 0 5.5 13C9.636 13 13 9.636 13 5.5a7.5 7.5 0 0 0-.17-1.586 6.495 6.495 0 0 1 2.994 4.094c.058-.002.116-.008.174-.008H16c.295 0 .583.028.863.078a7.528 7.528 0 0 0-4.45-5.49 7.43 7.43 0 0 0-1.327-.418z"/></svg>
